modules/coreui-icons-brand/icons/twitch.svg

<svg version="1.1" xmlns="http://www.w3.org/2000/svg" width="32" height="32" viewBox="0 0 32 32">
<title>twitch</title>
<path d="M2.787 0l-2.089 5.568v22.255h7.652v4.177h4.177l4.167-4.177h6.26l8.349-8.344v-19.479zM5.568 2.781h22.953v15.301l-4.871 4.871h-7.651l-4.172 4.172v-4.172h-6.26zM13.219 16.697h2.781v-8.348h-2.781zM20.864 16.697h2.781v-8.348h-2.781z"></path>
</svg>

<svg xmlns="http://www.w3.org/2000/svg" width="32" height="32" viewBox="0 0 32 32"><path d="M2.787 0L.698 5.568v22.255H8.35V32h4.177l4.167-4.177h6.26l8.349-8.344V0zm2.781 2.781h22.953v15.301l-4.871 4.871h-7.651l-4.172 4.172v-4.172h-6.26zm7.651 13.916H16V8.349h-2.781zm7.645 0h2.781V8.349h-2.781z"/></svg>
